icons/core/clipboard.svg

<svg width="32" height="32" viewBox="0 0 32 32" fill="none" xmlns="http://www.w3.org/2000/svg">
<path fill-rule="evenodd" clip-rule="evenodd" d="M12 2C10.8954 2 10 2.89543 10 4H7C5.89543 4 5 4.89543 5 6V28C5 29.1046 5.89543 30 7 30H25C26.1046 30 27 29.1046 27 28V6C27 4.89543 26.1046 4 25 4H22C22 2.89543 21.1046 2 20 2H12ZM22 6V8C22 9.10457 21.1046 10 20 10H12C10.8954 10 10 9.10457 10 8V6H7V28H25V6H22ZM12 4H20V8H12V4Z" fill="black"/>
</svg>

<svg viewBox="0 0 32 32" xmlns="http://www.w3.org/2000/svg"><path fill-rule="evenodd" d="M12 2a2 2 0 00-2 2H7a2 2 0 00-2 2v22a2 2 0 002 2h18a2 2 0 002-2V6a2 2 0 00-2-2h-3a2 2 0 00-2-2h-8zm10 4v2a2 2 0 01-2 2h-8a2 2 0 01-2-2V6H7v22h18V6h-3zM12 4h8v4h-8V4z"/></svg>
